fs/multiplier_1_5x_24_filled.svg

<svg viewBox="0 0 24 24" fill="none" xmlns="http://www.w3.org/2000/svg" height="1em" width="1em">
  <path d="M6.00015 7.90061C6.00015 7.45226 5.70182 7.0587 5.27018 6.93763C4.83854 6.81656 4.37909 6.99758 4.14598 7.38055C4.12162 7.42057 4.0973 7.46082 4.07285 7.50129C3.67005 8.1679 3.23096 8.89456 1.98566 9.64185C1.51208 9.92604 1.35851 10.5404 1.64266 11.014C1.92681 11.4877 2.54107 11.6413 3.01465 11.3571C3.39227 11.1305 3.71759 10.9004 4.00015 10.6714V16C4.00015 16.5524 4.44795 17.0002 5.00029 17.0001C5.55252 17.0001 6.00015 16.5523 6.00015 16V7.90061ZM10.9995 6.99898C10.5019 6.99898 10.08 7.36496 10.0096 7.85767L9.50957 11.3582C9.46469 11.6724 9.57159 11.9892 9.79764 12.212C10.0237 12.4348 10.342 12.537 10.6555 12.4875L12.476 12.2C13.4072 12.053 14.2495 12.7728 14.2495 13.7157C14.2495 14.5631 13.5626 15.2501 12.7153 15.2501H12.4438C12.004 15.2501 11.5792 15.0895 11.2494 14.7985L10.911 14.5001C10.4968 14.1347 9.86491 14.1743 9.49957 14.5885C9.13424 15.0028 9.17384 15.6348 9.58803 16.0002L9.92638 16.2986C10.6216 16.912 11.5168 17.2504 12.4438 17.2504H12.7153C14.6672 17.2504 16.2495 15.6678 16.2495 13.7157C16.2495 11.5437 14.3092 9.88545 12.1641 10.2242L11.681 10.3005L11.8668 8.99925H14.9995C15.5518 8.99925 15.9995 8.55148 15.9995 7.99911C15.9995 7.44675 15.5518 6.99898 14.9995 6.99898H10.9995ZM18.7071 12.2926C18.3166 11.902 17.6834 11.902 17.2929 12.2926C16.9024 12.6832 16.9024 13.3164 17.2929 13.707L18.0858 14.5L17.2929 15.293C16.9024 15.6836 16.9024 16.3168 17.2929 16.7074C17.6834 17.098 18.3166 17.098 18.7071 16.7074L19.5 15.9144L20.2929 16.7074C20.6834 17.098 21.3166 17.098 21.7071 16.7074C22.0976 16.3168 22.0976 15.6836 21.7071 15.293L20.9142 14.5L21.7071 13.707C22.0976 13.3164 22.0976 12.6832 21.7071 12.2926C21.3166 11.902 20.6834 11.902 20.2929 12.2926L19.5 13.0856L18.7071 12.2926ZM8.5 16.2503C8.5 16.6645 8.16421 17.0004 7.75 17.0004C7.33579 17.0004 7 16.6645 7 16.2503C7 15.836 7.33579 15.5001 7.75 15.5001C8.16421 15.5001 8.5 15.836 8.5 16.2503Z" fill="#212121"/>
</svg>

<svg viewBox="0 0 24 24" fill="none" xmlns="http://www.w3.org/2000/svg" height="1em" width="1em">
  <path d="M6 7.9a1 1 0 0 0-1.854-.52l-.073.121c-.403.667-.842 1.394-2.087 2.14a1 1 0 0 0 1.029 1.716A8.53 8.53 0 0 0 4 10.671V16a1 1 0 1 0 2 0V7.9Zm5-.9a1 1 0 0 0-.99.859l-.5 3.5a1 1 0 0 0 1.146 1.13l1.82-.288a1.534 1.534 0 1 1 .24 3.05h-.272c-.44 0-.865-.16-1.195-.451l-.338-.299A1 1 0 1 0 9.588 16l.338.299c.696.613 1.59.951 2.518.951h.271a3.534 3.534 0 1 0-.55-7.026l-.484.076.186-1.3h3.132a1 1 0 0 0 0-2.001h-4Zm7.707 5.294a1 1 0 1 0-1.414 1.414l.793.793-.793.793a1 1 0 0 0 1.414 1.414l.793-.793.793.793a1 1 0 1 0 1.414-1.414l-.793-.793.793-.793a1 1 0 0 0-1.414-1.414l-.793.793-.793-.793ZM8.5 16.25a.75.75 0 1 1-1.5 0 .75.75 0 0 1 1.5 0Z" fill="#212121"/>
</svg>
